!!!COM: Gaspar van Weerbeke
!!!CDT: ~1450-~1517
!!!ONB: attrib. "Gaspart" #48 in FlorC Basevi 2442
!!!OTL: Que fait le cocu au bois
!!!ONB: Bassus composed by Paul Kolb
!!!AGN: Song; Chanson
!!!SCT: Gas0504.2
!!!SCA: Gas0504.2
!!!voices: 4
!!!voices-extant: 3
**kern	**text	**kern	**text	**kern	**text	**kern	**text
*part4	*part4	*part3	*part3	*part2	*part2	*part1	*part1
*staff4	*staff4	*staff3	*staff3	*staff2	*staff2	*staff1	*staff1
*I"Bassus	*	*I"Tenor	*	*I"Altus	*	*I"Superius	*
*I'B	*	*I'T	*	*I'A	*	*I'S	*
*clefF4	*	*clefGv2	*	*clefGv2	*	*clefG2	*
*k[b-]	*	*k[b-]	*	*k[b-]	*	*k[b-]	*
*M2/1	*	*M2/1	*	*M2/1	*	*M2/1	*
*met(C|)	*	*met(C|)	*	*met(C|)	*	*met(C|)	*
=1	=1	=1	=1	=1	=1	=1	=1
!LO:TX:a:t=[Bassus composed by Paul Kolb]	!	!	!	!	!	!	!
1r	.	1F	Que	0r	.	0r	.
*	*edit	*	*	*	*	*	*
1FF	Que	1F	fait	.	.	.	.
=2	=2	=2	=2	=2	=2	=2	=2
1FF	fait	1F	le	0r	.	0r	.
1FF	le	1D	co-	.	.	.	.
=3	=3	=3	=3	=3	=3	=3	=3
1GG	co-	1E	-cu	0r	.	0r	.
1AA	-cu	1F	au	.	.	.	.
=4	=4	=4	=4	=4	=4	=4	=4
1BB-y	au	0G	bois,	0r	.	0r	.
[1C	bois,	.	.	.	.	.	.
=5	=5	=5	=5	=5	=5	=5	=5
1C]	.	1.A	qui	0r	.	0r	.
[1D	qui	.	.	.	.	.	.
.	.	2G	ne	.	.	.	.
=6	=6	=6	=6	=6	=6	=6	=6
2D]	.	1F	vol-	0r	.	0r	.
4C	ne	.	.	.	.	.	.
4BB-y	.	.	.	.	.	.	.
1AA	vol-	1F	-le,	.	.	.	.
!!LO:LB:g=original
=7	=7	=7	=7	=7	=7	=7	=7
1GG	-le,	2B-y	vol-	0r	.	0r	.
.	.	2B-y	-le,	.	.	.	.
2BB-y	vol-	2B-y	vol-	.	.	.	.
2BB-y	-le,	2A	-le,	.	.	.	.
=8	=8	=8	=8	=8	=8	=8	=8
1BB-y	vol-	1G	vol-	0r	.	0r	.
1AA	-le	2.F	-le'au-	.	.	.	.
.	.	4G	.	.	.	.	.
=9	=9	=9	=9	=9	=9	=9	=9
1C	au-	4A	.	0r	.	0r	.
.	.	4G	.	.	.	.	.
.	.	2A	.	.	.	.	.
2BB-y	.	2G	.	.	.	.	.
[2C	-cu-	[2A	-cu-	.	.	.	.
=10	=10	=10	=10	=10	=10	=10	=10
2C]	.	4A]	.	0r	.	0r	.
.	.	4G	.	.	.	.	.
2AA	.	1F	.	.	.	.	.
1GG	-ne	.	.	.	.	.	.
.	.	2E	-ne	.	.	.	.
=11	=11	=11	=11	=11	=11	=11	=11
[0FF	fois?	0F	fois?	1c	Que	1r	.
.	.	.	.	1c	fait	1f	Que
=12	=12	=12	=12	=12	=12	=12	=12
0FF]	.	0r	.	1c	le	1f	fait
.	.	.	.	1A	co-	1f	le
!!LO:LB:g=original	*	*	*	*	*	*	*
=13	=13	=13	=13	=13	=13	=13	=13
0r	.	0r	.	1B-y	-cu	1d	co-
.	.	.	.	1c	au	1e	-cu
=14	=14	=14	=14	=14	=14	=14	=14
0r	.	0r	.	1d	bois,	1f	au
.	.	.	.	[1e	qui	[1g	bois,
=15	=15	=15	=15	=15	=15	=15	=15
0r	.	0r	.	2e]	.	1g]	.
.	.	.	.	2d	ne	.	.
.	.	.	.	2c	vol-	[1a	qui
.	.	.	.	2c	-le,	.	.
=16	=16	=16	=16	=16	=16	=16	=16
0r	.	0r	.	2f	vol-	2a]	.
.	.	.	.	2e	-le,	2g	ne
.	.	.	.	2d	vol-	1f	vol-
.	.	.	.	4c	-le,	.	.
.	.	.	.	4B-y	.	.	.
=17	=17	=17	=17	=17	=17	=17	=17
0r	.	0r	.	1A	vol-	1f	-le,
.	.	.	.	1G	-le,	2b-y	vol-
.	.	.	.	.	.	2b-y	-le,
=18	=18	=18	=18	=18	=18	=18	=18
0r	.	0r	.	2B-y	vol-	2.b-y	vol-
.	.	.	.	2B-y	-le,	.	.
.	.	.	.	.	.	4a	.
.	.	.	.	2B-y	vol-	1g	-le,
.	.	.	.	2B-y	-le,	.	.
!!LO:LB:g=original
=19	=19	=19	=19	=19	=19	=19	=19
0r	.	0r	.	2A	vol-	2f	.
.	.	.	.	2G	-le,	2.g	vol-
.	.	.	.	2.c	vol-	.	.
.	.	.	.	.	.	4f	.
.	.	.	.	.	.	4e	.
.	.	.	.	4B-y	.	4d	.
=20	=20	=20	=20	=20	=20	=20	=20
0r	.	0r	.	4A	-le,	2c	.
.	.	.	.	4G	.	.	.
.	.	.	.	2F	.	1f	.
.	.	.	.	1G	vol-	.	.
.	.	.	.	.	.	2e	.
=21	=21	=21	=21	=21	=21	=21	=21
1r	.	0r	.	1F	-le,	0f	-le,
1F	que	.	.	1c	que	.	.
=22	=22	=22	=22	=22	=22	=22	=22
1F	fait	1F	que	1c	fait	1r	.
1F	le	1F	fait	1c	le	1f	que
=23	=23	=23	=23	=23	=23	=23	=23
2.D	co-	1F	le	1d	co-	1f	fait
4E	.	.	.	.	.	.	.
2F	-cu	2A	co-	2c	-cu	1f	le
2BB-y	au	[2B-y	-cu	[2d	au	.	.
=24	=24	=24	=24	=24	=24	=24	=24
1D	bois,	4B-]	.	4d]	.	1d	co-
.	.	4A	.	4A	.	.	.
.	.	4G	.	2B-y	.	.	.
.	.	4F	.	.	.	.	.
1C	.	1G	au	1c	bois,	1e	-cu
!!LO:PB:g=original	*	*	*	*	*	*	*
=25	=25	=25	=25	=25	=25	=25	=25
0r	.	1F	bois,	2A	qui	1f	au
.	.	.	.	2A	ne	.	.
.	.	2B-y	qui	2.G	vol-	[1g	bois,
.	.	2B-y	ne	.	.	.	.
.	.	.	.	4F	-le,	.	.
=26	=26	=26	=26	=26	=26	=26	=26
2.C	qui	2G	vol-	2.E	vol-	1g]	.
.	.	2G	-le,	.	.	.	.
4BB-y	ne	.	.	4D	-le,	.	.
*	*	*	*	*	*edit	*	*
2AA	vol-	[1c	vol-	2C	vol-	[1a	qui
2FF	-le,	.	.	2C	-le,	.	.
=27	=27	=27	=27	=27	=27	=27	=27
1.F	vol-	2c]	.	1r	.	2a]	.
.	.	2B-y	.	.	.	2g	ne
.	.	1A	-le'au-	2r	.	2f	vol-
*	*	*	*	*	*Xedit	*	*
2F	-le'au-	.	.	2c	qui	2f	-le'au-
=28	=28	=28	=28	=28	=28	=28	=28
2G	-cu-	1G	-cu-	2d	ne	1b-y	-cu-
2E	.	.	.	2e	vol-	.	.
2F	.	2F	.	2A	-le'au-	2a	.
2C	.	2E	.	[2c	-cu-	[2g	.
=29	=29	=29	=29	=29	=29	=29	=29
1D	.	1F	.	4c]	.	2g]	.
.	.	.	.	4A	.	.	.
.	.	.	.	2B-y	.	1f	.
1C	-ne	1G	-ne	1c	-ne	.	.
.	.	.	.	.	.	2e	-ne
=30	=30	=30	=30	=30	=30	=30	=30
0FF	fois?	0F	fois?	0A	fois?	0f	fois?
!!LO:LB:g=original	*	*	*	*	*	*	*
=31	=31	=31	=31	=31	=31	=31	=31
0r	.	0r	.	1e	Ung	0r	.
.	.	.	.	1e	hom-	.	.
=32	=32	=32	=32	=32	=32	=32	=32
1A	Ung	0r	.	1c	-me'est	0r	.
1A	hom-	.	.	1e	en	.	.
=33	=33	=33	=33	=33	=33	=33	=33
1F	-me'est	0r	.	1.f	ces-	0r	.
1A	en	.	.	.	.	.	.
.	.	.	.	2e	-te	.	.
=34	=34	=34	=34	=34	=34	=34	=34
1.B-y	ces-	0r	.	1d	vil-	0r	.
.	.	.	.	1c	-le,	.	.
2A	-te	.	.	.	.	.	.
=35	=35	=35	=35	=35	=35	=35	=35
1G	vil-	1B-y	Ung	1r	.	0r	.
*	*	*	*	*	*edit	*	*
1F	-le,	1A	hom-	[1f	ces-	.	.
=36	=36	=36	=36	=36	=36	=36	=36
1r	.	1F	-me'est	2f]	.	1a	Ung
.	.	.	.	4e	-te	.	.
.	.	.	.	4d	.	.	.
1F	ung	1A	en	1c	vil-	1a	hom-
=37	=37	=37	=37	=37	=37	=37	=37
0BB-y	hom-	1.B-y	ces-	0d	-le,	0f	-me'est
.	.	2B-y	-te	.	.	.	.
!!LO:LB:g=original	*	*	*	*	*	*	*
=38	=38	=38	=38	=38	=38	=38	=38
1F	-me'est	1A	vil-	1r	.	0a	en
*	*	*	*	*	*Xedit	*	*
1D	en	1F	-le	1d	en	.	.
=39	=39	=39	=39	=39	=39	=39	=39
1.G	ces-	0r	.	2.d	ces-	1.b-y	ces-
.	.	.	.	4c	.	.	.
.	.	.	.	4d	-te	.	.
.	.	.	.	4e	.	.	.
2F	-te	.	.	[2f	vil-	2a	-te
=40	=40	=40	=40	=40	=40	=40	=40
1C	vil-	0r	.	2f]	.	1g	vil-
.	.	.	.	2e	.	.	.
1D	-le	.	.	1f	-le	1f	-le
=41	=41	=41	=41	=41	=41	=41	=41
0r	.	1A	qui	1e	qui	0r	.
.	.	1A	est	2e	est	.	.
.	.	.	.	2f	co-	.	.
=42	=42	=42	=42	=42	=42	=42	=42
1F	qui	0F	co-	2f	-cu	1a	qui
.	.	.	.	4e	.	.	.
.	.	.	.	4d	.	.	.
1F	est	.	.	1c	.	1a	est
=43	=43	=43	=43	=43	=43	=43	=43
1D	co-	0A	-cu	1d	.	1f	co-
1F	-cu	.	.	2c	par	1a	-cu
.	.	.	.	2f	ma	.	.
!!LO:PB:g=original	*	*	*	*	*	*	*
=44	=44	=44	=44	=44	=44	=44	=44
1G	par	1B-y	par	2e	.	1g	par
.	.	.	.	1d	foy.	.	.
2D	ma	1A	ma	.	.	1f	ma
2F	.	.	.	[2c	.	.	.
=45	=45	=45	=45	=45	=45	=45	=45
0C	foy.	0G	foy.	2c]	.	0e	foy.
.	.	.	.	4B-y	.	.	.
.	.	.	.	4A	.	.	.
.	.	.	.	1G	.	.	.
=46	=46	=46	=46	=46	=46	=46	=46
0r	.	0r	.	1e	Ne	0r	.
.	.	.	.	1e	fut	.	.
=47	=47	=47	=47	=47	=47	=47	=47
0r	.	0r	.	1c	l'hon-	1a	Ne
.	.	.	.	1f	-neur	1a	fut
=48	=48	=48	=48	=48	=48	=48	=48
1r	.	0r	.	2d	de	1f	l'hon-
.	.	.	.	4c	.	.	.
.	.	.	.	4B-y	.	.	.
1A	Ne	.	.	2A	sa	1a	-neur
.	.	.	.	[2c	fem-	.	.
=49	=49	=49	=49	=49	=49	=49	=49
1A	fut	1r	.	4c]	.	2cc	de
.	.	.	.	4d	.	.	.
.	.	.	.	2e	.	2cc	sa
1F	l'hon-	1A	Ne	1f	-me,	2.cc	fem-
.	.	.	.	.	.	4b-y	.
!!LO:PB:g=original
=50	=50	=50	=50	=50	=50	=50	=50
*	*	*	*	*	*edit	*	*
1.F	-neur	1A	fut	4F	l'hon-	1.a	.
.	.	.	.	4G	.	.	.
.	.	.	.	4A	.	.	.
.	.	.	.	4B-y	.	.	.
.	.	1F	l'hon-	[1c	-neur	.	.
4E	.	.	.	.	.	4g	.
4D	.	.	.	.	.	4f	.
=51	=51	=51	=51	=51	=51	=51	=51
1C	.	1A	-neur	2c]	.	1e	-me;
.	.	.	.	4B-y	.	.	.
.	.	.	.	4A	.	.	.
[1BB-y	de	[1G	de	[1d	de	1r	.
=52	=52	=52	=52	=52	=52	=52	=52
2BB-]	.	2G]	.	2d]	.	0r	.
2AA	sa	2F	sa	4c	sa	.	.
.	.	.	.	4d	.	.	.
1GG	fem-	1E	fem-	4e	fem-	.	.
.	.	.	.	4d	.	.	.
.	.	.	.	4c	.	.	.
.	.	.	.	4B-y	.	.	.
=53	=53	=53	=53	=53	=53	=53	=53
0FF	-me;	1F	-me;	1A	-me;	1r	.
*	*	*	*	*	*Xedit	*	*
.	.	2F	je	2c	je	2a	je
.	.	2F	le	2c	le	2a	le
*	*	*	*	*	*edit	*	*edit
=54	=54	=54	=54	=54	=54	=54	=54
1r	.	1F	vous	2c	vous	2a	vous
*	*	*	*	*	*Xedit	*	*Xedit
.	.	.	.	2A	mon-	2a	mon-
2BB-y	je	1D	mon-	2B-y	-stras-	2f	-stras-
2BB-y	le	.	.	2B-y	-se'au	4e	.
.	.	.	.	.	.	4d	.
!!LO:LB:g=original	*	*	*	*	*	*	*
=55	=55	=55	=55	=55	=55	=55	=55
*	*	*	*	*lig	*	*	*
2C	vous	1E	-stras-	1G	doibt.	1c	.
2C	mon-	.	.	.	.	.	.
2AA	-stras-	1F	-se'au	1c	.	1f	-se'au
2FF	-se'au	.	.	.	.	.	.
*	*	*	*	*Xlig	*	*	*
=56	=56	=56	=56	=56	=56	=56	=56
1C	doibt,	0G	doibt.	1r	.	1e	doibt,
2r	.	.	.	2c	Que	2r	.
2C	au	.	.	2c	fait	2e	au
=57	=57	=57	=57	=57	=57	=57	=57
2AA	.	0r	.	2c	le	2c	.
1D	.	.	.	2A	co-	1f	.
.	.	.	.	2.B-y	-cu	.	.
2C	.	.	.	.	.	2e	.
.	.	.	.	4c	au	.	.
=58	=58	=58	=58	=58	=58	=58	=58
1BB-y	doibt.	2F	Que	2d	bois,	1f	doibt.
.	.	2F	fait	2d	Que	.	.
2BB-y	Que	2F	le	2d	fait	1r	.
2BB-y	fait	2D	co-	2d	le	.	.
=59	=59	=59	=59	=59	=59	=59	=59
2GG	le	2E	-cu	2B-y	co-	0r	.
2AA	co-	2F	au	2A	-cu	.	.
2BB-y	-cu	1G	bois,	2d	au	.	.
2C	au	.	.	2e	bois,	.	.
!!LO:LB:g=original	*	*	*	*	*	*	*
=60	=60	=60	=60	=60	=60	=60	=60
*	*	*	*	*	*edit	*	*
1FF	bois,	2.A	qui	2.c	qui	2f	Que
.	.	.	.	.	.	2f	fait
.	.	4A	ne	4c	ne	.	.
2.BB-y	qui	2F	vol-	2d	vol-	2f	le
.	.	2F	-le,	2f	-le,	2d	co-
4AA	ne	.	.	.	.	.	.
=61	=61	=61	=61	=61	=61	=61	=61
2GG	vol-	1r	.	2e	vol-	2e	-cu
2FF	-le,	.	.	2d	-le,	2f	au
1r	.	2.B-y	vol-	1r	.	1g	bois,
.	.	4B-y	-le,	.	.	.	.
=62	=62	=62	=62	=62	=62	=62	=62
*	*	*	*	*	*Xedit	*	*
2.C	vol-	2G	vol-	2.e	qui	1r	.
.	.	2G	-le,	.	.	.	.
4BB-y	-le,	.	.	4d	ne	.	.
2AA	vol-	1r	.	2c	vol-	2.a	qui
2AA	-le,	.	.	2c	-le,	.	.
.	.	.	.	.	.	4g	ne
=63	=63	=63	=63	=63	=63	=63	=63
1r	.	4A	vol-	2.c	vol-	2f	vol-
.	.	4A	-le,	.	.	.	.
.	.	4A	vol-	.	.	2f	-le,
.	.	4A	-le,	4c	-le,	.	.
4D	vol-	2F	vol-	2d	vol-	1r	.
4D	-le,	.	.	.	.	.	.
4D	vol-	2F	-le,	2d	-le,	.	.
4D	-le,	.	.	.	.	.	.
=64	=64	=64	=64	=64	=64	=64	=64
2BB-y	vol-	1r	.	1r	.	2.b-y	vol-
2BB-y	-le,	.	.	.	.	.	.
.	.	.	.	.	.	4a	-le,
1r	.	4B-y	vol-	4d	vol-	2g	vol-
.	.	4B-y	-le,	4d	-le,	.	.
.	.	4B-y	vol-	4d	vol-	2g	-le,
.	.	4B-y	-le,	4d	-le,	.	.
!!LO:LB:g=original	*	*	*	*	*	*	*
=65	=65	=65	=65	=65	=65	=65	=65
4C	vol-	2G	vol-	2e	vol-	1r	.
4C	-le,	.	.	.	.	.	.
4C	vol-	2G	-le,	2e	-le,	.	.
4C	-le,	.	.	.	.	.	.
2G	vol-	1r	.	1r	.	4b-y	vol-
.	.	.	.	.	.	4b-y	-le,
2G	-le,	.	.	.	.	4b-y	vol-
.	.	.	.	.	.	4b-y	-le,
=66	=66	=66	=66	=66	=66	=66	=66
1r	.	2.c	qui	2e	vol-	2g	vol-
.	.	.	.	2e	-le,	2g	-le,
.	.	4B-y	.	.	.	.	.
2F	qui	2A	.	2f	vol-	2.cc	vol-
2E	ne	2G	ne	2g	-le'au-	.	.
.	.	.	.	.	.	4b-y	-le,
=67	=67	=67	=67	=67	=67	=67	=67
2F	vol-	2F	vol-	4c	-cu-	2a	vol-
.	.	.	.	4d	.	.	.
2C	-le'au-	1c	-le'au-	2e	.	2g	-le,
2F	-cu-	.	.	2.A	.	2.a	vol-
4E	.	[2c	-cu-	.	.	.	.
4D	.	.	.	4B-y	.	4g	.
=68	=68	=68	=68	=68	=68	=68	=68
1C	.	2c]	.	1c	-ne	2e	-le'au-
.	.	4B-y	.	.	.	1f	-cu-
.	.	4A	.	.	.	.	.
1C	-ne	1G	-ne	[1cl	fois?	.	.
.	.	.	.	.	.	2e	-ne
=69	=69	=69	=69	=69	=69	=69	=69
0FFl	fois?	0Fl	fois?	0cl]	.	0fl	fois?
==	==	==	==	==	==	==	==
*-	*-	*-	*-	*-	*-	*-	*-
!!!system-decoration: [*]
!!!RDF**kern: l = terminal long
!!!PTL: Gaspar van Weerbeke: Collected Works. V. Settings of Liturgical Texts, Songs, and Instrumental Works
!!!ISBN: 978-1-59551-544-5
!!!PPR: American Institute of Musicology
!!!PC#: Corpus Mensurabilis Musicae 106/V
!!!PDT: 2020
!!!PED: Kolb, Paul
!!!YEC: Copyright 2018, Kolb, Paul
!!!YEM: CC-BY-NC 4.0 (https://creativecommons.org/licenses/by-nc/4.0/legalcode)
!!!EED: Zybina, Karina
!!!EEV: 2021/07/28
!!!RDF**kern: j = editorial accidental, optional, paren up
!!!RDF**kern: i = editorial accidental
!!!muse2ps: C^@{COM}^i2I150v90,90,90,120c122z18l2700t130
!!!ONB: from http://www.gaspar-van-weerbeke.sbg.ac.at/gaspar-online-edition with doubled rhythms
